X: 1
C: Peter Marsh
T: The Third Eye
M: 3/4
L: 1/8
R: Waltz
K: G
|:GA | B2 d3 B | A2 d2 A2 | G3 A BG | F2 E2 FE |
 D2 G2 A2 |1 B2 A2 G2 | F3 G A2 | D4 :|2 B2 G2 F2 | G6- | G4 ||
|: GA | B3 A G2 | A2 G2 F2 | G3 F E2 | F2 E2 D2 |
 E2 F2 G2 | F3 G A2 |1 G3 A B2 | D4 :|2 G6- | G4 ||
